src/topics/icons/rancher.svg

<svg height="120" preserveAspectRatio="xMidYMid" viewBox="0 0 256 120" width="256" xmlns="http://www.w3.org/2000/svg"><path d="m255.867703 26.3199996-2.775132-16.61846134c-.891126-5.335385-2.972476-9.70153826-4.628305-9.70153826-1.655828 0-3.009477 4.42461499-3.009477 9.83384537v4.34461613c0 5.4092304-4.434044 9.8338454-9.854804 9.8338454h-4.350791c-.317598 0-.629029.0123085-.937378.0307696v11.9476925c.308349.0153845.61978.0276921.937378.0276921h16.382533c5.420759 0 9.127103-4.3630765 8.235976-9.6984615zm-39.277375-14.0676923h-26.567269c-.22201 0-.437855.0184611-.653698.0338463h-27.273385c-.320682 0-.632114.0307689-.940462.0799997v-2.53230793c0-5.40923038-1.353648-9.83384537-3.006393-9.83384537-1.655829 0-3.737179 4.36615326-4.628305 9.70153826l-2.775132 16.61846134c-.891127 5.3323075 2.815217 9.6984615 8.232893 9.6984615h16.385616c1.686663 0 3.280823-.2615382 4.671472-.7230771-.521108 2.7876927-2.966308 4.8984616-5.907948 4.8984616h-22.978098c-3.718677 0-6.546228-3.3323079-5.9357-6.9907693l2.328028-13.9261534c.610529-3.6615389-2.217022-6.9907693-5.932616-6.9907693h-114.3508775c-2.4359501 0-4.5296336 1.4461535-5.4762615 3.5261535l-21.5350284 32.6892308c-.36693439.5538461-.32068198 1.28.10792123 1.7876929l4.17811639 4.9230769c.52419209.6153846 1.43998562.7076919 2.07209895.20923l14.63728253-11.5261535v69.9415388c0 3.313846 2.6918783 6.003076 6.0158708 6.003076h32.4628836c3.3239916 0 6.01587-2.68923 6.01587-6.003076v-24.3230776c0-3.3169227 2.6949624-6.0030764 6.0158708-6.0030764h81.0431201c3.320909 0 6.015871 2.6861537 6.015871 6.0030764v24.3230776c0 3.313846 2.691878 6.003076 6.01587 6.003076h32.462884c3.320908 0 6.01587-2.68923 6.01587-6.003076v-26.1753849h-17.242823c-5.417675 0-9.851721-4.4276925-9.851721-9.8338462v-16.8338463c0-3.2030768 1.560242-6.0523071 3.956106-7.8492302v20.0892306c0 5.4092303 4.434045 9.8338461 9.854804 9.8338461h26.567269c5.420759 0 9.854804-4.4246158 9.854804-9.8338461v-51.1476925c0-5.4092312-4.434045-9.8338462-9.854804-9.8338462z" fill="#585858"/></svg>

<?xml version="1.0" encoding="UTF-8" standalone="no"?>
<svg width="256px" height="120px" viewBox="0 0 256 120" version="1.1" xmlns="http://www.w3.org/2000/svg" xmlns:xlink="http://www.w3.org/1999/xlink" preserveAspectRatio="xMidYMid">
    <g>
        <path d="M255.867703,26.3199996 L253.092571,9.70153826 C252.201445,4.36615326 250.120095,0 248.464266,0 C246.808438,0 245.454789,4.42461499 245.454789,9.83384537 L245.454789,14.1784615 C245.454789,19.5876919 241.020745,24.0123069 235.599985,24.0123069 L231.249194,24.0123069 C230.931596,24.0123069 230.620165,24.0246154 230.311816,24.0430765 L230.311816,35.990769 C230.620165,36.0061535 230.931596,36.0184611 231.249194,36.0184611 L247.631727,36.0184611 C253.052486,36.0184611 256.75883,31.6553846 255.867703,26.3199996 Z M216.590328,12.2523073 L190.023059,12.2523073 C189.801049,12.2523073 189.585204,12.2707684 189.369361,12.2861536 L162.095976,12.2861536 C161.775294,12.2861536 161.463862,12.3169225 161.155514,12.3661533 L161.155514,9.83384537 C161.155514,4.42461499 159.801866,0 158.149121,0 C156.493292,0 154.411942,4.36615326 153.520816,9.70153826 L150.745684,26.3199996 C149.854557,31.6523071 153.560901,36.0184611 158.978577,36.0184611 L175.364193,36.0184611 C177.050856,36.0184611 178.645016,35.7569229 180.035665,35.295384 C179.514557,38.0830767 177.069357,40.1938456 174.127717,40.1938456 L151.149619,40.1938456 C147.430942,40.1938456 144.603391,36.8615377 145.213919,33.2030763 L147.541947,19.2769229 C148.152476,15.615384 145.324925,12.2861536 141.609331,12.2861536 L27.2584535,12.2861536 C24.8225034,12.2861536 22.7288199,13.7323071 21.782192,15.8123071 L0.247163601,48.5015379 C-0.119770786,49.055384 -0.0735183795,49.7815379 0.355084829,50.2892308 L4.53320122,55.2123077 C5.05739331,55.8276923 5.97318684,55.9199996 6.60530017,55.4215377 L21.2425827,43.8953842 L21.2425827,113.836923 C21.2425827,117.150769 23.934461,119.839999 27.2584535,119.839999 L59.7213371,119.839999 C63.0453287,119.839999 65.7372071,117.150769 65.7372071,113.836923 L65.7372071,89.5138454 C65.7372071,86.1969227 68.4321695,83.510769 71.7530779,83.510769 L152.796198,83.510769 C156.117107,83.510769 158.812069,86.1969227 158.812069,89.5138454 L158.812069,113.836923 C158.812069,117.150769 161.503947,119.839999 164.827939,119.839999 L197.290823,119.839999 C200.611731,119.839999 203.306693,117.150769 203.306693,113.836923 L203.306693,87.6615381 L186.06387,87.6615381 C180.646195,87.6615381 176.212149,83.2338456 176.212149,77.8276919 L176.212149,60.9938456 C176.212149,57.7907688 177.772391,54.9415385 180.168255,53.1446154 L180.168255,73.233846 C180.168255,78.6430763 184.6023,83.0676921 190.023059,83.0676921 L216.590328,83.0676921 C222.011087,83.0676921 226.445132,78.6430763 226.445132,73.233846 L226.445132,22.0861535 C226.445132,16.6769223 222.011087,12.2523073 216.590328,12.2523073 Z" fill="#585858"></path>
    </g>
</svg>
